src/public/img/icons/github.disabled.svg

<svg width="20" height="20" viewBox="0 0 20 20" fill="none" xmlns="http://www.w3.org/2000/svg">
<path d="M4.6148 13.4145C5.32897 13.5443 5.70349 14.2426 5.70349 14.2426C6.41708 15.4959 7.57611 15.1339 8.03186 14.9239L4.6148 13.4145ZM4.6148 13.4145C4.595 13.3981 4.58095 13.3852 4.57144 13.3756C4.56661 13.3708 4.56358 13.3674 4.56199 13.3656M4.6148 13.4145L4.58629 13.4096C4.5758 13.3851 4.56563 13.3703 4.56199 13.3656M4.56199 13.3656C4.56111 13.3644 4.56062 13.3638 4.56059 13.3638C4.56056 13.3638 4.56099 13.3644 4.56199 13.3656ZM4.42073 13.9007C4.42168 13.9006 4.42264 13.9005 4.42362 13.9004C4.42603 13.9001 4.42843 13.8999 4.43079 13.8996L4.39183 13.9056C4.39626 13.9044 4.40562 13.9026 4.41953 13.9009C4.41993 13.9008 4.42033 13.9008 4.42073 13.9007ZM4.42073 13.9007C4.20643 14.3463 4.20617 14.3462 4.20591 14.346L4.20643 14.3463L4.42073 13.9007ZM5.50029 16.212C5.93788 16.5846 6.589 16.8546 7.5105 16.7774C7.51162 16.9096 7.51274 17.0296 7.51373 17.1357C7.51499 17.2714 7.51604 17.3845 7.51663 17.4716C4.60036 16.4216 2.5 13.5686 2.5 10.2027C2.5 5.9366 5.87005 2.5 9.99926 2.5C14.13 2.5 17.5 5.93667 17.5 10.2027C17.5 13.569 15.3998 16.4211 12.4837 17.4725C12.4842 17.3868 12.4849 17.2753 12.4859 17.1414C12.4866 17.0343 12.4874 16.9128 12.4883 16.7786C12.4907 16.3863 12.4932 15.8899 12.4932 15.3404C12.4932 14.8989 12.4182 14.514 12.2899 14.1936C12.9833 14.0465 13.6872 13.7831 14.2705 13.2824C15.0991 12.5712 15.6029 11.4545 15.6029 9.77369C15.6029 8.86494 15.3204 8.0908 14.8397 7.46397C14.9545 7.02007 15.0511 6.21447 14.6671 5.22158L14.5817 5.00092L14.357 4.92698L14.2007 5.40193C14.357 4.92698 14.3565 4.92682 14.356 4.92666L14.355 4.92633L14.353 4.92567L14.3487 4.92431L14.3392 4.92147C14.3326 4.91952 14.3252 4.91749 14.3172 4.91542C14.301 4.91128 14.2821 4.90699 14.2602 4.90293C14.2165 4.89482 14.1618 4.88773 14.0957 4.88461C13.9632 4.87836 13.7882 4.88821 13.5689 4.93564C13.1672 5.02254 12.6205 5.23464 11.9118 5.70093C11.2931 5.54617 10.6446 5.46974 10.0028 5.46641V5.46639L9.99765 5.46641C9.35559 5.46974 8.70671 5.54613 8.08855 5.7009C7.37929 5.23457 6.83217 5.0225 6.4301 4.93562C6.21064 4.8882 6.03554 4.87837 5.90303 4.88461C5.83695 4.88773 5.78216 4.89481 5.73845 4.90291C5.71663 4.90696 5.69767 4.91124 5.68153 4.91538C5.67347 4.91745 5.66612 4.91947 5.65948 4.92141L5.65007 4.92425L5.64577 4.9256L5.64371 4.92626L5.64271 4.92659C5.64222 4.92675 5.64173 4.92691 5.79778 5.40193L5.64173 4.92691L5.41661 5.00087L5.33131 5.22194C4.94827 6.21461 5.04489 7.02015 5.16013 7.46444C4.68044 8.09048 4.39561 8.86425 4.39561 9.77369C4.39561 11.4507 4.89877 12.5672 5.72478 13.2802C6.30795 13.7837 7.01204 14.0497 7.70551 14.1988C7.6608 14.3112 7.62267 14.4315 7.59202 14.5592C7.42068 14.6137 7.21537 14.6529 7.00994 14.6341C6.73696 14.6091 6.4151 14.48 6.13984 13.9985L6.13315 13.9865C6.1277 13.977 6.12045 13.9645 6.11139 13.9496C6.09332 13.9197 6.06785 13.8797 6.03501 13.8326C5.9698 13.7391 5.87292 13.6144 5.74391 13.4865C5.48984 13.2347 5.07773 12.9391 4.51413 12.8985L4.49938 12.8974L4.48461 12.8972L4.47816 13.3972C4.48461 12.8972 4.48445 12.8972 4.48428 12.8972L4.48394 12.8972L4.4832 12.8972L4.48149 12.8972L4.47716 12.8972L4.46502 12.8972C4.45548 12.8973 4.44293 12.8975 4.42802 12.8981C4.39865 12.8991 4.35782 12.9015 4.31122 12.9067C4.23801 12.915 4.07392 12.9376 3.92613 13.024C3.84621 13.0706 3.72854 13.1606 3.66128 13.3187C3.58817 13.4905 3.6087 13.661 3.66259 13.7927C3.75106 14.0088 3.94933 14.1743 4.13638 14.3053L4.16974 14.3286L4.19687 14.3417C4.20126 14.3443 4.21049 14.35 4.22378 14.3593C4.25448 14.3809 4.30728 14.4219 4.37253 14.489C4.50046 14.6204 4.68323 14.8591 4.83987 15.2621C4.84129 15.2664 4.84288 15.2711 4.84465 15.2762C4.85124 15.2954 4.86034 15.3203 4.87233 15.3501C4.89624 15.4094 4.93197 15.4888 4.98263 15.58C5.08353 15.7616 5.24719 15.9964 5.50029 16.212ZM4.38994 13.9061C4.38993 13.9061 4.3905 13.9059 4.39171 13.9056L4.38994 13.9061Z" fill="#b2bdc7" stroke="#b2bdc7"/>
</svg>

<svg xmlns="http://www.w3.org/2000/svg" width="20" height="20" fill="none">
  <path fill="#b2bdc7" stroke="#b2bdc7" d="M4.615 13.415c.714.13 1.088.828 1.088.828.714 1.253 1.873.89 2.329.68l-3.417-1.508Zm0 0a.61.61 0 0 1-.053-.05m.053.05-.029-.005a.214.214 0 0 0-.024-.044m0 0Zm-.141.535h.003l.007-.001-.04.006a.226.226 0 0 1 .029-.005Zm0 0-.215.445.215-.445Zm1.08 2.311c.437.373 1.088.643 2.01.565 0 .133.002.253.003.359l.003.336C4.6 16.422 2.5 13.569 2.5 10.202 2.5 5.938 5.87 2.5 10 2.5s7.5 3.437 7.5 7.703c0 3.366-2.1 6.218-5.016 7.27a200.903 200.903 0 0 1 .004-.694c.003-.393.005-.89.005-1.439 0-.441-.075-.826-.203-1.146.693-.148 1.397-.41 1.98-.912.83-.71 1.333-1.828 1.333-3.508 0-.91-.283-1.683-.763-2.31.114-.444.211-1.25-.173-2.242L14.582 5l-.225-.074-.156.475.155-.475h-.001l-.002-.001-.004-.002-.01-.003a.678.678 0 0 0-.079-.018 1.217 1.217 0 0 0-.164-.018 2.046 2.046 0 0 0-.527.05c-.402.088-.949.3-1.657.766a8.082 8.082 0 0 0-1.91-.235h-.004a8.114 8.114 0 0 0-1.91.235c-.709-.466-1.256-.678-1.658-.765a2.05 2.05 0 0 0-.527-.051 1.221 1.221 0 0 0-.244.036l-.009.003-.004.002h-.003l.155.476-.156-.475L5.417 5l-.086.22c-.383.994-.286 1.8-.17 2.243a3.72 3.72 0 0 0-.765 2.31c0 1.677.503 2.793 1.329 3.506.583.504 1.287.77 1.98.919a2.645 2.645 0 0 0-.113.36 1.503 1.503 0 0 1-.582.075c-.273-.025-.595-.154-.87-.636l-.007-.011a1.647 1.647 0 0 0-.098-.154 2.528 2.528 0 0 0-.291-.347c-.254-.251-.666-.547-1.23-.588h-.029l-.007.5.006-.5h-.019a1.222 1.222 0 0 0-.154.009.999.999 0 0 0-.385.117.627.627 0 0 0-.265.295.61.61 0 0 0 .002.474c.088.216.286.381.473.512l.034.024.027.013a1.072 1.072 0 0 1 .176.147c.127.131.31.37.467.773a.988.988 0 0 0 .032.088 2.302 2.302 0 0 0 .628.862ZM4.39 13.906h.002-.002Z"/>
</svg>
